packages/dnb-ui-lib/assets/icons/stocks.svg

<svg width="16" height="16" viewBox="0 0 16 16" fill="none" xmlns="http://www.w3.org/2000/svg">
<path d="M1.75 1C1.75 0.585786 1.41421 0.25 1 0.25C0.585786 0.25 0.25 0.585786 0.25 1H1.75ZM1 15H0.25C0.25 15.4142 0.585786 15.75 1 15.75L1 15ZM15 15.75C15.4142 15.75 15.75 15.4142 15.75 15C15.75 14.5858 15.4142 14.25 15 14.25V15.75ZM5 8L5.25265 7.29384C4.97257 7.19363 4.65973 7.26842 4.45526 7.48448L5 8ZM6.68833 8.60405L7.3471 8.24556C7.25903 8.08371 7.11447 7.95996 6.94098 7.89789L6.68833 8.60405ZM7.89378 10.8192L7.23501 11.1777C7.37295 11.4312 7.64408 11.583 7.93228 11.5682C8.22048 11.5534 8.47461 11.3745 8.58584 11.1082L7.89378 10.8192ZM13.1022 9.20202L12.4001 9.46582C12.5053 9.74565 12.7666 9.93633 13.0651 9.95111C13.3637 9.96589 13.6425 9.80195 13.7748 9.53387L13.1022 9.20202ZM15.6726 5.6874C15.8559 5.31594 15.7033 4.86624 15.3318 4.68297C14.9604 4.49969 14.5107 4.65225 14.3274 5.02371L15.6726 5.6874ZM4.74735 8.70616L6.43568 9.31021L6.94098 7.89789L5.25265 7.29384L4.74735 8.70616ZM6.02956 8.96255L7.23501 11.1777L8.55255 10.4607L7.3471 8.24556L6.02956 8.96255ZM13.7748 9.53387L15.6726 5.6874L14.3274 5.02371L12.4296 8.87018L13.7748 9.53387ZM11.1389 2.55556C11.1389 2.65681 11.0568 2.73889 10.9556 2.73889V4.23889C11.8852 4.23889 12.6389 3.48523 12.6389 2.55556H11.1389ZM10.9556 2.73889C10.8543 2.73889 10.7722 2.65681 10.7722 2.55556H9.27222C9.27222 3.48523 10.0259 4.23889 10.9556 4.23889V2.73889ZM10.7722 2.55556C10.7722 2.4543 10.8543 2.37222 10.9556 2.37222V0.872222C10.0259 0.872222 9.27222 1.62588 9.27222 2.55556H10.7722ZM10.9556 2.37222C11.0568 2.37222 11.1389 2.4543 11.1389 2.55556H12.6389C12.6389 1.62588 11.8852 0.872222 10.9556 0.872222V2.37222ZM0.25 1V12.2267H1.75V1H0.25ZM0.25 12.2267V15H1.75V12.2267H0.25ZM1 15.75H10.9556V14.25H1V15.75ZM10.9556 15.75H15V14.25H10.9556V15.75ZM10.2056 3.48889V15H11.7056V3.48889H10.2056ZM1.54474 12.7423L5.54474 8.51552L4.45526 7.48448L0.45526 11.7112L1.54474 12.7423ZM8.58584 11.1082L11.6476 3.77795L10.2635 3.19983L7.20172 10.5301L8.58584 11.1082ZM10.2535 3.75269L12.4001 9.46582L13.8043 8.93822L11.6576 3.22509L10.2535 3.75269Z" fill="black"/>
</svg>

<svg width="16" height="16" viewBox="0 0 16 16" fill="none" xmlns="http://www.w3.org/2000/svg"><path d="M1.75 1a.75.75 0 00-1.5 0h1.5zM1 15H.25c0 .414.336.75.75.75V15zm14 .75a.75.75 0 000-1.5v1.5zM5 8l.253-.706a.75.75 0 00-.798.19L5 8zm1.688.604l.66-.358a.75.75 0 00-.407-.348l-.253.706zm1.206 2.215l-.659.359a.75.75 0 001.35-.07l-.691-.289zm5.208-1.617l-.702.264a.75.75 0 001.375.068l-.673-.332zm2.57-3.515a.75.75 0 10-1.345-.663l1.346.663zM4.748 8.707l1.689.603.505-1.412-1.688-.604-.506 1.412zm1.283.256l1.205 2.215 1.318-.717-1.206-2.215-1.317.717zm7.745.57l1.898-3.846-1.346-.663L12.43 8.87l1.345.664zm-2.636-6.977a.183.183 0 01-.183.183v1.5c.93 0 1.683-.754 1.683-1.683h-1.5zm-.183.183a.183.183 0 01-.184-.183h-1.5c0 .93.754 1.683 1.684 1.683v-1.5zm-.184-.183c0-.102.082-.184.184-.184v-1.5c-.93 0-1.684.754-1.684 1.684h1.5zm.184-.184c.1 0 .183.082.183.184h1.5c0-.93-.754-1.684-1.683-1.684v1.5zM.25 1v11.227h1.5V1H.25zm0 11.227V15h1.5v-2.773H.25zM1 15.75h9.956v-1.5H1v1.5zm9.956 0H15v-1.5h-4.044v1.5zm-.75-12.261V15h1.5V3.489h-1.5zm-8.661 9.253l4-4.226-1.09-1.032-4 4.227 1.09 1.031zm7.04-1.634l3.063-7.33-1.384-.578-3.062 7.33 1.384.578zm1.668-7.355L12.4 9.466l1.404-.528-2.146-5.713-1.404.528z" fill="#000"/></svg>
